packages/web-icons/svgs/cart_1.svg

<svg viewBox="0 0 46 48" xmlns="http://www.w3.org/2000/svg" class="ridi_icon"><path d="M40 43.7c0 2.4-1.9 4.3-4.4 4.3-2.4 0-4.3-2-4.3-4.3 0-2.4 1.9-4.4 4.3-4.4 2.5 0 4.4 1.9 4.4 4.4zm-24.6 0c0 2.3-2 4.3-4.4 4.3-2.4 0-4.4-2-4.4-4.3 0-2.4 1.9-4.4 4.4-4.4 2.4 0 4.4 1.9 4.4 4.4zM45 10.6s-4.5 13.7-4.6 14c-.5 1.6-1 2.4-3.2 2.4H11.5v3.5H39c.6 0 1 .5 1 1V34c0 .6-.5 1-1 1H7.6c-.6 0-1-.5-1-1V4.5H1.9c-.6 0-1-.5-1-1V1c0-.6.5-1 1-1h8.6c.6 0 1 .5 1 1v6.3h31.1c1.8.1 3 1.5 2.4 3.3z"/></svg>

<?xml version="1.0" encoding="UTF-8"?>
<svg width="46px" height="48px" viewBox="0 0 46 48" version="1.1" xmlns="http://www.w3.org/2000/svg">
  <!-- Generator: Sketch 41.2 (35397) - http://www.bohemiancoding.com/sketch -->
  <title>cart_1</title>
  <desc>Created with Sketch.</desc>
  <defs></defs>
  <g id="Page-1" stroke="none" stroke-width="1" fill="none" fill-rule="evenodd">
    <g id="cart_1" fill="#000000">
      <g id="레이어_1">
        <path d="M40,43.7 C40,46.1 38.1,48 35.6,48 C33.2,48 31.3,46 31.3,43.7 C31.3,41.3 33.2,39.3 35.6,39.3 C38.1,39.3 40,41.2 40,43.7 Z M15.4,43.7 C15.4,46 13.4,48 11,48 C8.6,48 6.6,46 6.6,43.7 C6.6,41.3 8.5,39.3 11,39.3 C13.4,39.3 15.4,41.2 15.4,43.7 Z M45,10.6 C45,10.6 40.5,24.3 40.4,24.6 C39.9,26.2 39.4,27 37.2,27 L11.5,27 L11.5,30.5 L39,30.5 C39.6,30.5 40,31 40,31.5 L40,34 C40,34.6 39.5,35 39,35 L7.6,35 C7,35 6.6,34.5 6.6,34 L6.6,4.5 L1.9,4.5 C1.3,4.5 0.9,4 0.9,3.5 L0.9,1 C0.9,0.4 1.4,0 1.9,0 L10.5,0 C11.1,0 11.5,0.5 11.5,1 L11.5,7.3 L42.6,7.3 C44.4,7.4 45.6,8.8 45,10.6 L45,10.6 Z" id="Shape"></path>
      </g>
    </g>
  </g>
</svg>
